X:1
T:Herrnhut, 77.88.77
T:Herrnhut, 77.88.77
T:Hernhutter Choralbuch, 1735
T:Public Domain Courtesy of the Cyber Hymnal™
C:Hernhutter Choralbuch, 1735
Z:Public Domain
Z:Courtesy of the Cyber Hymnal™
%%score ( 1 2 ) ( 3 4 )
L:1/8
Q:1/4=110
M:4/4
K:G
V:1 treble 
V:2 treble 
V:3 bass 
V:4 bass 
V:1
 D2 [EG]2 [FA]2 [GB]2 | [Gc]2 (dc) [GB]4 | D2 [EG]2 [FA]2 [GB]2 | [Gc]2 (dc) [GB]4 | %4
 [GB]2 [Gd]2 [FA]2 [GB]2 | G2 (FG) [FA]2 [FA]2 | [GB]2 [Gd]2 [FA]2 [GB]2 | G2 (FG) [FA]2 [FA]2 | %8
 [Gd]2 [Ac]2 [GB]2 [Gc]2 | [GB]2 A2 [DG]4 | [Dd]2 [Dc]2 [DB]2 [Ec]2 | [DB]2 A2 [B,G]4 |] %12
V:2
 D2 x6 | x2 F2 x4 | D2 x6 | x2 F2 x4 | x8 | G2 D2 x4 | x8 | x2 D2 x4 | x8 | x2 (GF) x4 | x8 | %11
 x2 (DC) x4 |] %12
V:3
 [G,B,]2 [E,B,]2 [D,D]2 [G,D]2 | [E,C]2 (A,D) [G,D]4 | [F,A,]2 [E,B,]2 [D,D]2 [G,D]2 | %3
 [E,C]2 (A,D) [G,D]4 | [G,,D]2 D2 [D,D]2 [G,D]2 | [B,D]2 ([A,C][G,B,]) [D,A,]2 [D,D]2 | %6
 [G,,D]2 D2 [D,D]2 [G,D]2 | [B,D]2 ([A,C][G,B,]) [D,A,]2 [D,D]2 | [B,,D]2 [F,D]2 [G,D]2 [C,E]2 | %9
 [D,D]2 [D,D]2 [G,,B,]4 | [B,,G,]2 [F,A,]2 G,2 [C,G,]2 | [D,G,]2 [D,F,]2 [G,,D,]4 |] %12
V:4
 x8 | x2 D,2 x4 | x8 | x2 D,2 x4 | x2 (B,,C,) x4 | x8 | x2 (B,,C,) x4 | x8 | x8 | x8 | x8 | x8 |] %12

